; Generated by ROS2-Robotic-Architecture
G21 ; Set units to mm
G90 ; Absolute positioning

; Layer 0
G0 X0.00 Y0.00 Z2.00 F80.0
G0 X50.00 Y0.00 Z2.00 F80.0
G0 X50.00 Y50.00 Z2.00 F80.0
G0 X0.00 Y50.00 Z2.00 F80.0
G0 X0.00 Y0.00 Z2.00 F150.0
G0 X0.00 Y5.00 Z2.00 F150.0
G1 X50.00 Y5.00 Z2.00 F50.0
G0 X50.00 Y10.00 Z2.00 F150.0
G1 X0.00 Y10.00 Z2.00 F50.0
G0 X0.00 Y15.00 Z2.00 F150.0
G1 X50.00 Y15.00 Z2.00 F50.0
G0 X50.00 Y20.00 Z2.00 F150.0
G1 X0.00 Y20.00 Z2.00 F50.0
G0 X0.00 Y25.00 Z2.00 F150.0
G1 X50.00 Y25.00 Z2.00 F50.0
G0 X50.00 Y30.00 Z2.00 F150.0
G1 X0.00 Y30.00 Z2.00 F50.0
G0 X0.00 Y35.00 Z2.00 F150.0
G1 X50.00 Y35.00 Z2.00 F50.0
G0 X50.00 Y40.00 Z2.00 F150.0
G1 X0.00 Y40.00 Z2.00 F50.0
G0 X0.00 Y45.00 Z2.00 F150.0
G1 X50.00 Y45.00 Z2.00 F50.0
; Layer 1
G0 X0.00 Y0.00 Z4.00 F80.0
G0 X50.00 Y0.00 Z4.00 F80.0
G0 X50.00 Y50.00 Z4.00 F80.0
G0 X0.00 Y50.00 Z4.00 F80.0
G0 X0.00 Y0.00 Z4.00 F150.0
G0 X0.00 Y5.00 Z4.00 F150.0
G1 X50.00 Y5.00 Z4.00 F50.0
G0 X50.00 Y10.00 Z4.00 F150.0
G1 X0.00 Y10.00 Z4.00 F50.0
G0 X0.00 Y15.00 Z4.00 F150.0
G1 X50.00 Y15.00 Z4.00 F50.0
G0 X50.00 Y20.00 Z4.00 F150.0
G1 X0.00 Y20.00 Z4.00 F50.0
G0 X0.00 Y25.00 Z4.00 F150.0
G1 X50.00 Y25.00 Z4.00 F50.0
G0 X50.00 Y30.00 Z4.00 F150.0
G1 X0.00 Y30.00 Z4.00 F50.0
G0 X0.00 Y35.00 Z4.00 F150.0
G1 X50.00 Y35.00 Z4.00 F50.0
G0 X50.00 Y40.00 Z4.00 F150.0
G1 X0.00 Y40.00 Z4.00 F50.0
G0 X0.00 Y45.00 Z4.00 F150.0
G1 X50.00 Y45.00 Z4.00 F50.0
; Layer 2
G0 X0.00 Y0.00 Z6.00 F80.0
G0 X50.00 Y0.00 Z6.00 F80.0
G0 X50.00 Y50.00 Z6.00 F80.0
G0 X0.00 Y50.00 Z6.00 F80.0
G0 X0.00 Y0.00 Z6.00 F150.0
G0 X0.00 Y5.00 Z6.00 F150.0
G1 X50.00 Y5.00 Z6.00 F50.0
G0 X50.00 Y10.00 Z6.00 F150.0
G1 X0.00 Y10.00 Z6.00 F50.0
G0 X0.00 Y15.00 Z6.00 F150.0
G1 X50.00 Y15.00 Z6.00 F50.0
G0 X50.00 Y20.00 Z6.00 F150.0
G1 X0.00 Y20.00 Z6.00 F50.0
G0 X0.00 Y25.00 Z6.00 F150.0
G1 X50.00 Y25.00 Z6.00 F50.0
G0 X50.00 Y30.00 Z6.00 F150.0
G1 X0.00 Y30.00 Z6.00 F50.0
G0 X0.00 Y35.00 Z6.00 F150.0
G1 X50.00 Y35.00 Z6.00 F50.0
G0 X50.00 Y40.00 Z6.00 F150.0
G1 X0.00 Y40.00 Z6.00 F50.0
G0 X0.00 Y45.00 Z6.00 F150.0
G1 X50.00 Y45.00 Z6.00 F50.0
; Layer 3
G0 X0.00 Y0.00 Z8.00 F80.0
G0 X50.00 Y0.00 Z8.00 F80.0
G0 X50.00 Y50.00 Z8.00 F80.0
G0 X0.00 Y50.00 Z8.00 F80.0
G0 X0.00 Y0.00 Z8.00 F150.0
G0 X0.00 Y5.00 Z8.00 F150.0
G1 X50.00 Y5.00 Z8.00 F50.0
G0 X50.00 Y10.00 Z8.00 F150.0
G1 X0.00 Y10.00 Z8.00 F50.0
G0 X0.00 Y15.00 Z8.00 F150.0
G1 X50.00 Y15.00 Z8.00 F50.0
G0 X50.00 Y20.00 Z8.00 F150.0
G1 X0.00 Y20.00 Z8.00 F50.0
G0 X0.00 Y25.00 Z8.00 F150.0
G1 X50.00 Y25.00 Z8.00 F50.0
G0 X50.00 Y30.00 Z8.00 F150.0
G1 X0.00 Y30.00 Z8.00 F50.0
G0 X0.00 Y35.00 Z8.00 F150.0
G1 X50.00 Y35.00 Z8.00 F50.0
G0 X50.00 Y40.00 Z8.00 F150.0
G1 X0.00 Y40.00 Z8.00 F50.0
G0 X0.00 Y45.00 Z8.00 F150.0
G1 X50.00 Y45.00 Z8.00 F50.0
; Layer 4
G0 X0.00 Y0.00 Z10.00 F80.0
G0 X50.00 Y0.00 Z10.00 F80.0
G0 X50.00 Y50.00 Z10.00 F80.0
G0 X0.00 Y50.00 Z10.00 F80.0
G0 X0.00 Y0.00 Z10.00 F150.0
G0 X0.00 Y5.00 Z10.00 F150.0
G1 X50.00 Y5.00 Z10.00 F50.0
G0 X50.00 Y10.00 Z10.00 F150.0
G1 X0.00 Y10.00 Z10.00 F50.0
G0 X0.00 Y15.00 Z10.00 F150.0
G1 X50.00 Y15.00 Z10.00 F50.0
G0 X50.00 Y20.00 Z10.00 F150.0
G1 X0.00 Y20.00 Z10.00 F50.0
G0 X0.00 Y25.00 Z10.00 F150.0
G1 X50.00 Y25.00 Z10.00 F50.0
G0 X50.00 Y30.00 Z10.00 F150.0
G1 X0.00 Y30.00 Z10.00 F50.0
G0 X0.00 Y35.00 Z10.00 F150.0
G1 X50.00 Y35.00 Z10.00 F50.0
G0 X50.00 Y40.00 Z10.00 F150.0
G1 X0.00 Y40.00 Z10.00 F50.0
G0 X0.00 Y45.00 Z10.00 F150.0
G1 X50.00 Y45.00 Z10.00 F50.0
; Layer 5
G0 X0.00 Y0.00 Z12.00 F80.0
G0 X50.00 Y0.00 Z12.00 F80.0
G0 X50.00 Y50.00 Z12.00 F80.0
G0 X0.00 Y50.00 Z12.00 F80.0
G0 X0.00 Y0.00 Z12.00 F150.0
G0 X0.00 Y5.00 Z12.00 F150.0
G1 X50.00 Y5.00 Z12.00 F50.0
G0 X50.00 Y10.00 Z12.00 F150.0
G1 X0.00 Y10.00 Z12.00 F50.0
G0 X0.00 Y15.00 Z12.00 F150.0
G1 X50.00 Y15.00 Z12.00 F50.0
G0 X50.00 Y20.00 Z12.00 F150.0
G1 X0.00 Y20.00 Z12.00 F50.0
G0 X0.00 Y25.00 Z12.00 F150.0
G1 X50.00 Y25.00 Z12.00 F50.0
G0 X50.00 Y30.00 Z12.00 F150.0
G1 X0.00 Y30.00 Z12.00 F50.0
G0 X0.00 Y35.00 Z12.00 F150.0
G1 X50.00 Y35.00 Z12.00 F50.0
G0 X50.00 Y40.00 Z12.00 F150.0
G1 X0.00 Y40.00 Z12.00 F50.0
G0 X0.00 Y45.00 Z12.00 F150.0
G1 X50.00 Y45.00 Z12.00 F50.0
; Layer 6
G0 X0.00 Y0.00 Z14.00 F80.0
G0 X50.00 Y0.00 Z14.00 F80.0
G0 X50.00 Y50.00 Z14.00 F80.0
G0 X0.00 Y50.00 Z14.00 F80.0
G0 X0.00 Y0.00 Z14.00 F150.0
G0 X0.00 Y5.00 Z14.00 F150.0
G1 X50.00 Y5.00 Z14.00 F50.0
G0 X50.00 Y10.00 Z14.00 F150.0
G1 X0.00 Y10.00 Z14.00 F50.0
G0 X0.00 Y15.00 Z14.00 F150.0
G1 X50.00 Y15.00 Z14.00 F50.0
G0 X50.00 Y20.00 Z14.00 F150.0
G1 X0.00 Y20.00 Z14.00 F50.0
G0 X0.00 Y25.00 Z14.00 F150.0
G1 X50.00 Y25.00 Z14.00 F50.0
G0 X50.00 Y30.00 Z14.00 F150.0
G1 X0.00 Y30.00 Z14.00 F50.0
G0 X0.00 Y35.00 Z14.00 F150.0
G1 X50.00 Y35.00 Z14.00 F50.0
G0 X50.00 Y40.00 Z14.00 F150.0
G1 X0.00 Y40.00 Z14.00 F50.0
G0 X0.00 Y45.00 Z14.00 F150.0
G1 X50.00 Y45.00 Z14.00 F50.0
; Layer 7
G0 X0.00 Y0.00 Z16.00 F80.0
G0 X50.00 Y0.00 Z16.00 F80.0
G0 X50.00 Y50.00 Z16.00 F80.0
G0 X0.00 Y50.00 Z16.00 F80.0
G0 X0.00 Y0.00 Z16.00 F150.0
G0 X0.00 Y5.00 Z16.00 F150.0
G1 X50.00 Y5.00 Z16.00 F50.0
G0 X50.00 Y10.00 Z16.00 F150.0
G1 X0.00 Y10.00 Z16.00 F50.0
G0 X0.00 Y15.00 Z16.00 F150.0
G1 X50.00 Y15.00 Z16.00 F50.0
G0 X50.00 Y20.00 Z16.00 F150.0
G1 X0.00 Y20.00 Z16.00 F50.0
G0 X0.00 Y25.00 Z16.00 F150.0
G1 X50.00 Y25.00 Z16.00 F50.0
G0 X50.00 Y30.00 Z16.00 F150.0
G1 X0.00 Y30.00 Z16.00 F50.0
G0 X0.00 Y35.00 Z16.00 F150.0
G1 X50.00 Y35.00 Z16.00 F50.0
G0 X50.00 Y40.00 Z16.00 F150.0
G1 X0.00 Y40.00 Z16.00 F50.0
G0 X0.00 Y45.00 Z16.00 F150.0
G1 X50.00 Y45.00 Z16.00 F50.0
; Layer 8
G0 X0.00 Y0.00 Z18.00 F80.0
G0 X50.00 Y0.00 Z18.00 F80.0
G0 X50.00 Y50.00 Z18.00 F80.0
G0 X0.00 Y50.00 Z18.00 F80.0
G0 X0.00 Y0.00 Z18.00 F150.0
G0 X0.00 Y5.00 Z18.00 F150.0
G1 X50.00 Y5.00 Z18.00 F50.0
G0 X50.00 Y10.00 Z18.00 F150.0
G1 X0.00 Y10.00 Z18.00 F50.0
G0 X0.00 Y15.00 Z18.00 F150.0
G1 X50.00 Y15.00 Z18.00 F50.0
G0 X50.00 Y20.00 Z18.00 F150.0
G1 X0.00 Y20.00 Z18.00 F50.0
G0 X0.00 Y25.00 Z18.00 F150.0
G1 X50.00 Y25.00 Z18.00 F50.0
G0 X50.00 Y30.00 Z18.00 F150.0
G1 X0.00 Y30.00 Z18.00 F50.0
G0 X0.00 Y35.00 Z18.00 F150.0
G1 X50.00 Y35.00 Z18.00 F50.0
G0 X50.00 Y40.00 Z18.00 F150.0
G1 X0.00 Y40.00 Z18.00 F50.0
G0 X0.00 Y45.00 Z18.00 F150.0
G1 X50.00 Y45.00 Z18.00 F50.0
; Layer 9
G0 X0.00 Y0.00 Z20.00 F80.0
G0 X50.00 Y0.00 Z20.00 F80.0
G0 X50.00 Y50.00 Z20.00 F80.0
G0 X0.00 Y50.00 Z20.00 F80.0
G0 X0.00 Y0.00 Z20.00 F150.0
G0 X0.00 Y5.00 Z20.00 F150.0
G1 X50.00 Y5.00 Z20.00 F50.0
G0 X50.00 Y10.00 Z20.00 F150.0
G1 X0.00 Y10.00 Z20.00 F50.0
G0 X0.00 Y15.00 Z20.00 F150.0
G1 X50.00 Y15.00 Z20.00 F50.0
G0 X50.00 Y20.00 Z20.00 F150.0
G1 X0.00 Y20.00 Z20.00 F50.0
G0 X0.00 Y25.00 Z20.00 F150.0
G1 X50.00 Y25.00 Z20.00 F50.0
G0 X50.00 Y30.00 Z20.00 F150.0
G1 X0.00 Y30.00 Z20.00 F50.0
G0 X0.00 Y35.00 Z20.00 F150.0
G1 X50.00 Y35.00 Z20.00 F50.0
G0 X50.00 Y40.00 Z20.00 F150.0
G1 X0.00 Y40.00 Z20.00 F50.0
G0 X0.00 Y45.00 Z20.00 F150.0
G1 X50.00 Y45.00 Z20.00 F50.0
